X: 131
M: C|
L: 1/8
K: D
V: 1
    A>FD>F d>FD>F | A>FD>F    A3 g | f>de>c d<BA>F | G<EE>F G3  |]
V: 2 clef=bass middle=d
z | d2[f2d2] [g2d2][f2d2] | d2d2 f2d2 | d2[f2d2] [g2d2][f2d2] | e2e2 e3 :|
z | [d2D2][d2D2] [d2D2][d2D2] | [d2D2][d2D2] [d2D2][d2D2] |
    [d2D2][d2D2] [d2D2][d2D2] | [e2E2][e2E2] [e2E2][e2E2] |
    [d2D2][d2D2] [d2D2][d2D2] | [d2D2][d2D2] [f2F2][e2E2] |
	[d2D2][a2A2] [d2D2][^d2^D2] | [e2E2][e2E2] [e2E2] |]


